src/lib/packages/icons/src/assets/line/building-coins.svg

<svg width="24" height="24" viewBox="0 0 24 24" fill="none" xmlns="http://www.w3.org/2000/svg">
<path d="M18 11.25C17.561 11.25 17.148 11.2911 16.75 11.3501V6.81007C16.75 5.76407 16.015 4.84091 15.009 4.61891L5.01099 2.31007C4.33999 2.15107 3.645 2.30905 3.104 2.73805C2.562 3.16805 2.25 3.81102 2.25 4.50002V19C2.25 19.116 2.25296 19.2321 2.26196 19.2781C2.35596 20.7481 3.25202 21.6449 4.66602 21.7329C4.76902 21.7469 4.884 21.75 5 21.75H16C16.171 21.75 16.321 21.683 16.447 21.586C16.936 21.685 17.453 21.75 18 21.75C20.619 21.75 22.75 20.517 22.75 19V14C22.75 12.432 20.708 11.25 18 11.25ZM21.25 16.5C21.25 16.998 19.954 17.75 18 17.75C16.046 17.75 14.75 16.998 14.75 16.5V16.03C15.588 16.478 16.714 16.75 18 16.75C19.286 16.75 20.412 16.477 21.25 16.03V16.5ZM21.25 14C21.25 14.498 19.954 15.25 18 15.25C16.046 15.25 14.75 14.498 14.75 14C14.75 13.502 16.046 12.75 18 12.75C19.954 12.75 21.25 13.502 21.25 14ZM4.81702 20.242C4.09102 20.196 3.80405 19.909 3.75305 19.127C3.74805 19.088 3.75 19.044 3.75 19V4.50002C3.75 4.27102 3.85401 4.05808 4.03601 3.91408C4.21601 3.77108 4.45202 3.71901 4.67102 3.77101L14.678 6.08205C15.01 6.15505 15.25 6.46107 15.25 6.81007V11.7339C14.026 12.2209 13.25 13.036 13.25 14V19C13.25 19.452 13.458 19.873 13.793 20.25H12.25V17C12.25 15.483 11.017 14.25 9.5 14.25C7.983 14.25 6.75 15.483 6.75 17V20.25H5C4.954 20.25 4.91002 20.252 4.81702 20.242ZM10.75 20.25H8.25V17C8.25 16.311 8.811 15.75 9.5 15.75C10.189 15.75 10.75 16.311 10.75 17V20.25ZM18 20.25C16.012 20.25 14.75 19.371 14.75 19V18.53C15.588 18.978 16.714 19.25 18 19.25C19.286 19.25 20.412 18.977 21.25 18.53V19C21.25 19.371 19.988 20.25 18 20.25ZM10.25 9.00002C10.25 8.58602 10.586 8.25002 11 8.25002H12C12.414 8.25002 12.75 8.58602 12.75 9.00002C12.75 9.41402 12.414 9.75002 12 9.75002H11C10.586 9.75002 10.25 9.41402 10.25 9.00002ZM6.25 9.00002C6.25 8.58602 6.586 8.25002 7 8.25002H8C8.414 8.25002 8.75 8.58602 8.75 9.00002C8.75 9.41402 8.414 9.75002 8 9.75002H7C6.586 9.75002 6.25 9.41402 6.25 9.00002ZM10.25 12C10.25 11.586 10.586 11.25 11 11.25H12C12.414 11.25 12.75 11.586 12.75 12C12.75 12.414 12.414 12.75 12 12.75H11C10.586 12.75 10.25 12.414 10.25 12ZM6.25 12C6.25 11.586 6.586 11.25 7 11.25H8C8.414 11.25 8.75 11.586 8.75 12C8.75 12.414 8.414 12.75 8 12.75H7C6.586 12.75 6.25 12.414 6.25 12Z" fill="currentColor"/>
</svg>

<svg xmlns="http://www.w3.org/2000/svg" width="24" height="24" fill="none"><path fill="currentColor" d="M18 11.25a8.45 8.45 0 0 0-1.25.1V6.81c0-1.046-.735-1.97-1.741-2.191L5.011 2.31a2.227 2.227 0 0 0-1.907.428A2.24 2.24 0 0 0 2.25 4.5V19c0 .116.003.232.012.278.094 1.47.99 2.367 2.404 2.455.103.014.218.017.334.017h11a.729.729 0 0 0 .447-.164A7.791 7.791 0 0 0 18 21.75c2.619 0 4.75-1.233 4.75-2.75v-5c0-1.568-2.042-2.75-4.75-2.75Zm3.25 5.25c0 .498-1.296 1.25-3.25 1.25s-3.25-.752-3.25-1.25v-.47c.838.448 1.964.72 3.25.72s2.412-.273 3.25-.72v.47Zm0-2.5c0 .498-1.296 1.25-3.25 1.25s-3.25-.752-3.25-1.25 1.296-1.25 3.25-1.25 3.25.752 3.25 1.25ZM4.817 20.242c-.726-.046-1.013-.333-1.064-1.115-.005-.039-.003-.083-.003-.127V4.5c0-.229.104-.442.286-.586a.748.748 0 0 1 .635-.143l10.007 2.311a.743.743 0 0 1 .572.728v4.924c-1.224.487-2 1.302-2 2.266v5c0 .452.208.873.543 1.25H12.25V17a2.752 2.752 0 0 0-2.75-2.75A2.752 2.752 0 0 0 6.75 17v3.25H5c-.046 0-.09.002-.183-.008Zm5.933.008h-2.5V17c0-.689.561-1.25 1.25-1.25s1.25.561 1.25 1.25v3.25Zm7.25 0c-1.988 0-3.25-.879-3.25-1.25v-.47c.838.448 1.964.72 3.25.72s2.412-.273 3.25-.72V19c0 .371-1.262 1.25-3.25 1.25ZM10.25 9a.75.75 0 0 1 .75-.75h1a.75.75 0 0 1 0 1.5h-1a.75.75 0 0 1-.75-.75Zm-4 0A.75.75 0 0 1 7 8.25h1a.75.75 0 0 1 0 1.5H7A.75.75 0 0 1 6.25 9Zm4 3a.75.75 0 0 1 .75-.75h1a.75.75 0 0 1 0 1.5h-1a.75.75 0 0 1-.75-.75Zm-4 0a.75.75 0 0 1 .75-.75h1a.75.75 0 0 1 0 1.5H7a.75.75 0 0 1-.75-.75Z"/></svg>
